X: 10761
M: 2/4
L: 1/16
K: D
[|\
f2f2 f4 | edef d2c2 | B2A2 B2c2 | dABc dcde |\
f2f2 f4 | edef d2c2 | B2A2 B2c2 | dcde d4 H|]
d2 |\
dcBA A3B | BAGF F2A2 | GFED C2D2 | EGFA GFED |\
dcBA A3B | BAGF F3A | GFED C2D2 | E2F2"^D.C."D2 |]


